Papirus/16x16/apps/touhou-dream-logical-world.svg

<svg xmlns="http://www.w3.org/2000/svg" width="16" height="16" version="1.1">
 <path style="fill:#d35cc6" d="M 1.5,0 C 0.6775797,0 0,0.6775797 0,1.5 v 13 C 0,15.32242 0.6775797,16 1.5,16 h 13 C 15.32242,16 16,15.32242 16,14.5 V 1.5 C 16,0.6775797 15.32242,0 14.5,0 Z m 0,1 h 13 C 14.785579,1 15,1.2144214 15,1.5 v 13 C 15,14.785579 14.785579,15 14.5,15 H 1.5 C 1.214421,15 1,14.785579 1,14.5 V 1.5 C 1,1.2144214 1.214421,1 1.5,1 Z"/>
 <path style="fill:#4f4f4f" d="M 11.017823,5.8858135 9.964162,3.325567 a 0.41234083,0.41310794 0 0 1 0.3475,-0.5691948 L 11.92977,2.6234013 A 0.07648502,0.07662731 0 0 0 11.97428,2.4897131 L 11.2837,1.8758259 A 3.2855987,3.2917112 0 0 0 9.218772,1.0483625 L 7.886947,1.0013415 A 2.1590212,2.1630378 0 0 0 6.063892,1.8920953 l -0.02425,0.033458 A 7.7600231,7.7744598 0 0 0 5.446586,2.882716 L 4.68493,4.337694 A 5.9869375,5.9980755 0 0 0 4,7.1235391 v 0.6460601 a 0.22997289,0.23040073 0 0 0 0.289259,0.2226132 l 6.553423,-1.7517882 a 0.26269616,0.26318487 0 0 0 0.175141,-0.3546107 z"/>
 <path style="fill:#e4e4e4" d="M 3.002851,2.7539826 3.293213,5.4425588 A 0.62404068,0.62455765 0 0 0 4.158424,5.9499453 L 6.634863,4.8930359 A 2.5014325,2.5035047 0 0 1 7.207597,4.7259979 L 8.158095,4.5685454 A 17.75683,17.77154 0 0 1 8.752364,4.4804124 L 11.841572,4.0755918 A 0.182065,0.18221583 0 0 0 11.967028,3.7903375 L 10.800094,2.1239693 a 0.29072569,0.29096654 0 0 0 -0.412651,-0.06567 L 8.261333,3.6562249 A 0.47711346,0.47750871 0 0 1 8.059899,3.7442499 L 7.54582,3.8374759 A 0.60752909,0.60803238 0 0 1 7.192377,3.7955295 L 3.690912,2.2502276 a 0.49228547,0.49269329 0 0 0 -0.688061,0.503755 z"/>
 <ellipse style="fill:#4f4f4f" cx="5.431" cy="9.498" rx="7.258" ry="2.927" transform="matrix(0.95703498,-0.28997248,0.29509119,0.95546909,0,0)"/>
 <path style="fill:#ffe300" d="m 4.368914,8.4616162 0.07533,1.7609438 a 2.0350379,2.0347411 0 0 1 -0.556378,1.486901 l -0.849209,0.895566 a 0.14091868,0.14089813 0 0 0 0.0929,0.237528 l 2.296708,0.152961 a 2.0284999,2.028204 0 0 0 1.404557,-0.441995 l 0.0584,-0.04688 a 2.7276327,2.7272349 0 0 1 1.290536,-0.56833 l 0.850006,-0.131419 a 1.3605794,1.3603809 0 0 1 0.945987,0.20158 l 0.759692,0.490489 a 0.34045065,0.340401 0 0 0 0.445103,-0.06671 3.1420741,3.1416158 0 0 0 0.7241,-1.884592 l 0.07618,-1.6679504 a 16.48653,16.484125 0 0 0 -0.03751,-2.093594 L 11.910485,6.3596134 A 0.33536597,0.33531705 0 0 0 11.586319,6.0517372 L 9.997577,6.0039382 A 8.7072828,8.7060127 0 0 0 7.400909,6.3188172 L 6.051618,6.6943164 C 5.64752,6.8067741 5.021712,7.0649303 4.687609,7.3184236 4.458493,7.4922613 4.35099,8.0426019 4.368914,8.4616162 Z"/>
 <path style="fill:#e4e4e4" d="M 4,15 C 4.04051,14.822005 4.684794,14.191749 5.301524,13.621136 5.923798,13.045394 7.102252,12.399922 7.915048,12.158994 L 8.263217,12.05579 a 1.3530467,1.3534644 0 0 1 0.773632,0.0014 l 0.518727,0.155847 a 2.8658995,2.8667842 0 0 1 1.705278,1.398293 L 12,15 Z"/>
 <path style="fill:#ffeedb" d="m 6.0002461,8.7013082 0.018878,1.1070684 a 1.8570881,1.8570881 62.804868 0 0 0.7499229,1.4594974 l 0.434432,0.322481 a 2.0779517,2.0779517 0.33731938 0 0 2.4573453,0.01447 l 0.6063105,-0.439089 a 1.7725342,1.7725342 116.79664 0 0 0.732801,-1.4509123 l -0.0092,-1.0600604 A 1.6691648,1.6691648 44.485176 0 0 9.3060963,7.0000795 L 7.6420327,7.0156171 A 1.6575031,1.6575031 134.24405 0 0 6.0002461,8.7013082 Z"/>
</svg>

<svg xmlns="http://www.w3.org/2000/svg" width="16" height="16" version="1.1">
 <path style="fill:#d35cc6" d="M 1.5,0 C 0.67758,0 0,0.67758 0,1.5 V 14.5 C 0,15.322 0.67758,16 1.5,16 H 14.5 C 15.322,16 16,15.322 16,14.5 V 1.5 C 16,0.67758 15.322,0 14.5,0 Z M 1.5,1 H 14.5 C 14.786,1 15,1.2144 15,1.5 V 14.5 C 15,14.786 14.786,15 14.5,15 H 1.5 C 1.2144,15 1,14.786 1,14.5 V 1.5 C 1,1.2144 1.2144,1 1.5,1 Z"/>
 <path style="fill:#4f4f4f" d="M 11.018,5.8858 9.9642,3.3256 A 0.41234,0.41311 0 0 1 10.312,2.7564 L 11.93,2.6234 A 0.07649,0.07663 0 0 0 11.974,2.4897 L 11.284,1.8758 A 3.2856,3.2917 0 0 0 9.2188,1.0484 L 7.8869,1.0013 A 2.159,2.163 0 0 0 6.0639,1.8921 L 6.0396,1.9256 A 7.76,7.7745 0 0 0 5.4466,2.8827 L 4.6849,4.3377 A 5.9869,5.9981 0 0 0 4,7.1235 V 7.7696 A 0.22997,0.2304 0 0 0 4.2893,7.9922 L 10.843,6.2404 A 0.2627,0.26318 0 0 0 11.018,5.8858 Z"/>
 <path style="fill:#e4e4e4" d="M 3.0029,2.754 3.2932,5.4426 A 0.62404,0.62456 0 0 0 4.1584,5.9499 L 6.6349,4.893 A 2.5014,2.5035 0 0 1 7.2076,4.726 L 8.1581,4.5685 A 17.757,17.772 0 0 1 8.7524,4.4804 L 11.842,4.0756 A 0.18207,0.18222 0 0 0 11.967,3.7903 L 10.8,2.124 A 0.29073,0.29097 0 0 0 10.387,2.0583 L 8.2613,3.6562 A 0.47711,0.47751 0 0 1 8.0599,3.7442 L 7.5458,3.8375 A 0.60753,0.60803 0 0 1 7.1924,3.7955 L 3.6909,2.2502 A 0.49229,0.49269 0 0 0 3.0029,2.754 Z"/>
 <g transform="matrix(0.95704,-0.28997,0.29509,0.95547,0,0)">
  <ellipse style="fill:#4f4f4f" cx="5.431" cy="9.498" rx="7.258" ry="2.927"/>
 </g>
 <path style="fill:#ffe300" d="M 4.3689,8.4616 4.4442,10.223 A 2.035,2.0347 0 0 1 3.8879,11.709 L 3.0387,12.605 A 0.14092,0.1409 0 0 0 3.1316,12.843 L 5.4283,12.996 A 2.0285,2.0282 0 0 0 6.8328,12.554 L 6.8912,12.507 A 2.7276,2.7272 0 0 1 8.1818,11.938 L 9.0318,11.807 A 1.3606,1.3604 0 0 1 9.9778,12.008 L 10.737,12.499 A 0.34045,0.3404 0 0 0 11.183,12.432 3.1421,3.1416 0 0 0 11.907,10.548 L 11.983,8.8797 A 16.487,16.484 0 0 0 11.945,6.7861 L 11.91,6.3596 A 0.33537,0.33532 0 0 0 11.586,6.0517 L 9.9976,6.0039 A 8.7073,8.706 0 0 0 7.4009,6.3188 L 6.0516,6.6943 C 5.6475,6.8068 5.0217,7.0649 4.6876,7.3184 4.4585,7.4923 4.351,8.0426 4.3689,8.4616 Z"/>
 <path style="fill:#e4e4e4" d="M 4,15 C 4.0405,14.822 4.6848,14.192 5.3015,13.621 5.9238,13.045 7.1023,12.4 7.915,12.159 L 8.2632,12.056 A 1.353,1.3535 0 0 1 9.0368,12.057 L 9.5556,12.213 A 2.8659,2.8668 0 0 1 11.261,13.611 L 12,15 Z"/>
 <path style="fill:#ffeedb" d="M 6.0002,8.7013 6.0191,9.8084 A 1.8571,1.8571 0 0 0 6.769,11.268 L 7.2035,11.59 A 2.078,2.078 0 0 0 9.6608,11.605 L 10.267,11.166 A 1.7725,1.7725 0 0 0 11,9.7148 L 10.991,8.6548 A 1.6692,1.6692 0 0 0 9.3061,7.0001 L 7.642,7.0156 A 1.6575,1.6575 0 0 0 6.0002,8.7013 Z"/>
</svg>
